X: 1231
T: The Messenger
M:C|
L:1/8
R:Reel
B:O'Neill's 1231
N:Collected by F.O'Neill
Z:Transcribed by Trish O'Neil
K:G
D2 |: G2(Bd)g2(dg) | edcB ABcA | BGGBg2dg |1 ecAF GFED :|2 ecAFG2 ||
(ef) | gfeg fddf | gfefg2ef | gfeg fedc | BGAFG2(ef) |
gfeg fddf | gfefg2ga | bgaf gedc | BGAF GFED |]


